src/assets/svg/scroll.svg

<svg width="46" height="57" viewBox="0 0 46 57" fill="none" xmlns="http://www.w3.org/2000/svg">
<g opacity="0.46">
<path d="M41.929 9.53674e-05L46 4.00027L23 26.6001L0 4.00027L4.071 9.53674e-05L23 18.5998L41.929 9.53674e-05Z" fill="black"/>
<path d="M41.929 30.4L46 34.4002L23 57L0 34.4002L4.071 30.4L23 48.9997L41.929 30.4Z" fill="black" fill-opacity="0.5"/>
<path d="M41.929 15.1998L46 19.2L23 41.7998L3.8147e-06 19.2L4.071 15.1998L23 33.7995L41.929 15.1998Z" fill="black" fill-opacity="0.7"/>
</g>
</svg>

<svg width="46" height="57" fill="none" xmlns="http://www.w3.org/2000/svg"><g opacity=".46" fill="#000"><path d="M41.929 0 46 4 23 26.6 0 4l4.071-4L23 18.6 41.929 0z"/><path d="m41.929 30.4 4.071 4L23 57 0 34.4l4.071-4L23 49l18.929-18.6z" fill-opacity=".5"/><path d="m41.929 15.2 4.071 4-23 22.6L0 19.2l4.071-4L23 33.8l18.929-18.6z" fill-opacity=".7"/></g></svg>
